!! 00026] TT[TB
!! Eigene Aufnahme
!!!OTL: Wo de hua er
!!!ARE: Xinjiang, Yili(Nordwesten)
!! Ethnic Group: Hasake
!! IV, 506
!!!SCT: C0433
!!!YEM: Copyright 1995, estate of Helmut Schaffrath.
**kern
*ICvox
*Ivox
!! Mixed meters:  2/4; 3/4
*MZ
*k[]
*C:
{8cc
8cc
8.b
16g
=1
4a
16g
16f
16e
16g
=2
[2d
=3
2d]}
=4
{[2dd
=5
2dd]
=6
8cc
16cc
16dd
8b
8g
4a}
=7
{8g
16e
16d
8c
8d
16e
16d
16e
16g
=8
*M2/4
[2d
=9
2d]}
=10
{8d
16g
16g
8g
8g
=11
8cc
8cc
16b
16a
16b
16dd
=12
8a}
{16g
16f
16e
16f
16e
16d
=13
8c
8d
8e
16d
16e
=14
4g}
{8f
8e
=15
[2d
=16
2d]}
=17
{8d
16g
16g
8g
8g
=18
8cc
8cc
16b
16a
16b
16dd
=19
8a}
{16g
16f
16e
16f
16e
16d
=20
8c
8d
8e
16d
16e
=21
4g}
{8f
8e
=22
[2d
=23
2d]}
==
!!!AGN: Qingge Tanzlied
!! Vorspiel
!!    Sehr bekannt
!!    Die Saengerin Lei Huilan ist Angehoerige der Zhuang Minderheit und
!!    studiert an der Guangzhouer Musikhochschule.
!!    aufgenommen am 5.5.87
!!    +++AUCH AUF KASSETTE 1 = 46, CUT 7 (B-Seite)
!!    Vereinzelt Verzierungen. Vorspiel weggelassen.
!!    Pinyin-Text der ersten Strophe vorhanden!
!!!ONB: ESAC (Essen Associative Code) Database: CHINA_020
!!!AMT: irregular
!!!AIN: vox
!!!EED: Helmut Schaffrath
!!!EEV: 1.0
*-
!!!ONB: Tied note syntax fixed by Craig Sapp, 2004/05/03/
